packages/kaspersky-hexa-ui-icons/src/iconsSVGs/16/Reports1.svg

<svg width="16" height="16" viewBox="0 0 16 16" fill="none" xmlns="http://www.w3.org/2000/svg">
<path d="M5.7433 4.4603C5.7433 4.10132 5.45228 3.8103 5.0933 3.8103C4.73431 3.8103 4.4433 4.10132 4.4433 4.4603V8.52376C4.4433 8.88274 4.73431 9.17376 5.0933 9.17376C5.45228 9.17376 5.7433 8.88274 5.7433 8.52376V4.4603Z" fill="black"/>
<path d="M8.0004 5.99048C8.35939 5.99048 8.6504 6.28149 8.6504 6.64048V8.52376C8.6504 8.88274 8.35939 9.17376 8.0004 9.17376C7.64142 9.17376 7.3504 8.88274 7.3504 8.52376V6.64048C7.3504 6.28149 7.64142 5.99048 8.0004 5.99048Z" fill="black"/>
<path d="M11.5575 4.4603C11.5575 4.10132 11.2665 3.8103 10.9075 3.8103C10.5485 3.8103 10.2575 4.10132 10.2575 4.4603V8.52376C10.2575 8.88274 10.5485 9.17376 10.9075 9.17376C11.2665 9.17376 11.5575 8.88274 11.5575 8.52376V4.4603Z" fill="black"/>
<path fill-rule="evenodd" clip-rule="evenodd" d="M3.75742 1.1001C2.29387 1.1001 1.10742 2.28654 1.10742 3.7501V9.23394C1.10742 10.6975 2.29387 11.8839 3.75742 11.8839H5.6203V13.6001H4.78739C4.42841 13.6001 4.13739 13.8911 4.13739 14.2501C4.13739 14.6091 4.42841 14.9001 4.78739 14.9001H11.2134C11.5723 14.9001 11.8634 14.6091 11.8634 14.2501C11.8634 13.8911 11.5723 13.6001 11.2134 13.6001H10.3805V11.8839H12.2433C13.7069 11.8839 14.8933 10.6975 14.8933 9.23394V3.7501C14.8933 2.28654 13.7069 1.1001 12.2433 1.1001H3.75742ZM9.08046 13.6001H6.9203V11.8839H9.08046V13.6001ZM2.40742 3.7501C2.40742 3.00451 3.01184 2.4001 3.75742 2.4001H12.2433C12.9889 2.4001 13.5933 3.00451 13.5933 3.7501V9.23394C13.5933 9.97953 12.9889 10.5839 12.2433 10.5839H3.75742C3.01184 10.5839 2.40742 9.97953 2.40742 9.23394V3.7501Z" fill="black"/>
</svg>

<svg xmlns="http://www.w3.org/2000/svg" width="16" height="16" fill="none" viewBox="0 0 16 16"><path fill="#000" d="M5.743 4.46a.65.65 0 0 0-1.3 0v4.064a.65.65 0 0 0 1.3 0zM8 5.991a.65.65 0 0 1 .65.65v1.883a.65.65 0 0 1-1.3 0V6.641a.65.65 0 0 1 .65-.65m3.558-1.531a.65.65 0 1 0-1.3 0v4.064a.65.65 0 1 0 1.3 0z"/><path fill="#000" fill-rule="evenodd" d="M3.7574 1.1001c-1.4635 0-2.65 1.1864-2.65 2.65v5.4838c0 1.4636 1.1865 2.65 2.65 2.65h1.8629v1.7162h-.833a.65.65 0 1 0 0 1.3h6.4261a.65.65 0 0 0 0-1.3h-.8329v-1.7162h1.8628c1.4636 0 2.65-1.1864 2.65-2.65V3.7501c0-1.4636-1.1864-2.65-2.65-2.65zm5.323 12.5h-2.16v-1.7162h2.1602zm-6.673-9.85c0-.7456.6044-1.35 1.35-1.35h8.4859c.7456 0 1.35.6044 1.35 1.35v5.4838c0 .7456-.6044 1.35-1.35 1.35H3.7574c-.7456 0-1.35-.6044-1.35-1.35z" clip-rule="evenodd"/></svg>
